!!!COM: Corelli, Arcangelo
!!!OTL: 
!!!ONM: Opus 5, No. 11
!!!OMV: 2
!!!CDT: 1653/2/17/-1713/1/8/
!!!OCY: Italia
**kern	**kern
*clefC	*clefG
*k[f#c#g#]	*k[f#c#g#]
*A:	*A:
*M4/4	*M4/4
=1	=1
4E	8ee
.	8b
4r	8g#
.	8e
4D#	8b
.	8f#
4r	8dd#
.	16cc#
.	16b
=2	=2
4C#	8ee
.	8cc#
4F#	8a#
.	8f#
4BB	8dd#
.	8f#
4AA	4B
=3	=3
4.GG#	8ee
.	8e
.	8g#
8G#	8b
4.A	8c#
.	8e
.	8a
8AA	8cc#
=4	=4
4.BB	8d#
.	8f#
.	8b
8B	16ee
.	16dd#
4E	4ee
4r	4e
=5	=5
8e	16ee
.	16gg#
8B	16bb
.	16gg#
8G#	16ee
.	16gg#
8E	16bb
.	16gg#
8B	16dd#
.	16ff#
8F#	16bb
.	16ff#
8d#	16dd#
.	16ff#
16c#	16bb
16B	16ff#
=6	=6
8e	16cc#
.	16ee
8c#	16aa#
.	16ee
8A#	16cc#
.	16ee
8F#	16aa#
.	16cc#
8B	16b
.	16dd#
8F#	16ff#
.	16dd#
4BB	16b
.	16dd#
.	16ff#
.	16b
=7	=7
8B	16dd#
.	16ff#
8D#	16bb
.	16ff#
8F#	16dd#
.	16b
8B	16dd#
.	16ff#
8E	16gg#
.	16bb
8G#	16gg#
.	16ee
8B	16gg#
.	16bb
8e	16gg#
.	16ee
=8	=8
8F#	16aa#
.	16ccc#
8A#	16aa#
.	16ff#
8c#	16aa#
.	16ccc#
8f#	16aa#
.	16ff#
4d#	4bb
4BB	4r
=9	=9
16G#	8ee
16e	.
16G#	8e
16e	.
16G#	8g#
16e	.
16G#	8b
16e	.
16c#	4c#
16e	.
16c#	.
16e	.
16c#	4r
16e	.
16c#	.
16e	.
=10	=10
16F#	8a
16d#	.
16F#	8d#
16d#	.
16F#	8f#
16d#	.
16F#	8a
16d#	.
16G#	4B
16B	.
16G#	.
16B	.
16G#	4r
16B	.
16G#	.
16B	.
=11	=11
16E	8g#
16c#	.
16E	8c#
16c#	.
16E	8e
16c#	.
16E	8g#
16c#	.
16F#	4A
16A	.
16F#	.
16A	.
16F#	4r
16A	.
16F#	.
16A	.
=12	=12
16D#	8f#
16B	.
16D#	8B
16B	.
16D#	8d#
16B	.
16D#	8f#
16B	.
16E	4G#
16G#	.
16E	.
16G#	.
16E	4r
16G#	.
16E	.
16G#	.
=13	=13
16GG#	8ee
16E	.
16GG#	8b
16E	.
16GG#	8g#
16E	.
16GG#	8e
16E	.
16AA	8cc#
16E	.
16AA	8A
16E	.
16AA	8e
16E	.
16AA	8cc#
16E	.
=14	=14
16BB	4.b
16D#	.
16BB	.
16D#	.
16BB	.
16D#	.
16BB	8a
16D#	.
16C#	2g#
16E	.
16C#	.
16E	.
16C#	.
16E	.
16C#	.
16E	.
=15	=15
16GG#	8bb
16E	.
16GG#	8gg#
16E	.
16GG#	8ee
16E	.
16GG#	8b
16E	.
16AA	8cc#
16E	.
16AA	8d#
16E	.
16AA	8e
16E	.
16AA	8cc#
16E	.
=16	=16
16BB	4g#
16E	.
16BB	.
16E	.
16BB	4f#
16D#	.
16BB	.
16D#	.
2E	2e
=17	=17
16GG#	8bb
16E	.
16GG#	8gg#
16E	.
16GG#	8ee
16E	.
16GG#	8b
16E	.
16AA	8cc#
16E	.
16AA	8d#
16E	.
16AA	8e
16E	.
16AA	8cc#
16E	.
=18	=18
16BB	4g#
16E	.
16BB	.
16E	.
16BB	4f#
16D#	.
16BB	.
16D#	.
2EE	2e
=19	=19
8B#	16dd#
.	16gg#
8d#	16dd#
.	16gg#
8B#	16dd#
.	16gg#
8G#	16dd#
.	16gg#
4c#	16ee
.	16gg#
.	16ee
.	16gg#
4r	16ee
.	16gg#
.	16ee
.	16gg#
=20	=20
8B#	16dd#
.	16gg#
8d#	16dd#
.	16gg#
8B#	16dd#
.	16gg#
8G#	16dd#
.	16gg#
4c#	16ee
.	16gg#
.	16ee
.	16gg#
4r	16ee
.	16gg#
.	16ee
.	16gg#
=21	=21
8F#	16ee
.	16aa
8A	16ee
.	16aa
8F#	16ee
.	16aa
8A	16ee
.	16aa
4BB	16dd#
.	16aa
.	16dd#
.	16aa
4r	16dd#
.	16aa
.	16dd#
.	16aa
=22	=22
8E	16dd#
.	16gg#
8G#	16dd#
.	16gg#
8E	16dd#
.	16gg#
8G#	16dd#
.	16gg#
4AA	16cc#
.	16gg#
.	16cc#
.	16gg#
4r	16cc#
.	16gg#
.	16cc#
.	16gg#
=23	=23
8D#	16cc#
.	16ff#
8F#	16cc#
.	16ff#
8D#	16cc#
.	16ff#
8F#	16cc#
.	16ff#
4GG#	16b#
.	16ff#
.	16b#
.	16ff#
4AA	16cc#
.	16ee
.	16cc#
.	16ee
=24	=24
4FF#	16f#
.	16cc#
.	16f#
.	16cc#
4GG#	16g#
.	16b#
.	16g#
.	16b#
2C#	2c#
=25	=25
4B	16gg#
.	16bb
.	16gg#
.	16bb
4c#	16gg#
.	16bb
.	16aa#
.	16gg#
4d#	16ff#
.	16aa#
.	16ff#
.	16aa#
4r	16ff#
.	16aa#
.	16ff#
.	16aa#
=26	=26
4B	16gg#
.	16bb
.	16gg#
.	16bb
4c#	16gg#
.	16bb
.	16aa#
.	16gg#
4d#	16dd#
.	16ff#
.	16dd#
.	16ff#
4r	16dd#
.	16bb
.	16dd#
.	16bb
=27	=27
4E#	16cc#
.	16bb
.	16cc#
.	16bb
4F#	16cc#
.	16aa#
.	16cc#
.	16aa#
4G#	16b
.	16aa#
.	16b
.	16aa#
4r	16b
.	16gg#
.	16b
.	16gg#
=28	=28
4C#	16a#
.	16gg#
.	16a#
.	16gg#
4D#	16dd#
.	16ff#
.	16dd#
.	16ff#
4GG#	16dd#
.	16gg#
.	16dd#
.	16gg#
4r	16dd#
.	16bb
.	16dd#
.	16bb
=29	=29
4E#	16cc#
.	16bb
.	16cc#
.	16bb
4F#	16cc#
.	16aa#
.	16cc#
.	16aa#
4G#	16b
.	16aa#
.	16b
.	16aa#
4r	16b
.	16gg#
.	16b
.	16gg#
=30	=30
4C#	16a#
.	16gg#
.	16a#
.	16gg#
4D#	16dd#
.	16ff#
.	16dd#
.	16ff#
4GG#	4.gg#
4r	.
.	16aa
.	16bb
=31	=31
4E	8ee
.	8b
4r	8g#
.	8e
4D#	8b
.	8f#
4r	8dd#
.	16cc#
.	16b
=32	=32
4C#	8ee
.	8cc#
4F#	8a#
.	8f#
4BB	8dd#
.	8f#
4AA	4B
=33	=33
16G#	8ee
16e	.
16G#	8b
16e	.
16G#	8g#
16e	.
16G#	8e
16e	.
16A	4c#
16c#	.
16A	.
16c#	.
16A	4r
16c#	.
16A	.
16c#	.
=34	=34
16D#	8a
16B	.
16D#	8f#
16B	.
16D#	8d#
16B	.
16D#	8B
16B	.
16E	4G#
16G#	.
16E	.
16G#	.
16E	4r
16G#	.
16E	.
16G#	.
=35	=35
16GG#	8ee
16E	.
16GG#	8b
16E	.
16GG#	8g#
16E	.
16GG#	8e
16E	.
16AA	4c#
16E	.
16AA	.
16E	.
16AA	4r
16E	.
16AA	.
16E	.
=36	=36
16AA#	8ff#
16F#	.
16AA#	8cc#
16F#	.
16AA#	8a#
16F#	.
16AA#	8f#
16F#	.
16BB	4d#
16F#	.
16BB	.
16F#	.
16BB	4r
16F#	.
16BB	.
16F#	.
=37	=37
16GG#	8bb
16E	.
16GG#	8gg#
16E	.
16GG#	8ee
16E	.
16GG#	8b
16E	.
16AA	8cc#
16E	.
16AA	8d#
16E	.
16AA	8e
16E	.
16AA	8cc#
16E	.
=38	=38
16BB	4g#
16E	.
16BB	.
16E	.
16BB	4f#
16D#	.
16BB	.
16D#	.
2E	2e
=39	=39
16GG#	8bb
16E	.
16GG#	8gg#
16E	.
16GG#	8ee
16E	.
16GG#	8b
16E	.
16AA	8cc#
16E	.
16AA	8d#
16E	.
16AA	8e
16E	.
16AA	8cc#
16E	.
=40	=40
16BB	4g#
16E	.
16BB	.
16E	.
16BB	4f#
16D#	.
16BB	.
16D#	.
2EE	2e
==	==
*-	*-
!!!RWG: This file only contains pitch and duration data.
!!!RWG: Transposing instruments are not transposed.
!!!RWG: Durations of rests and tied notes may be interpreted.
!!!RWG: Key is interpreted using the Humdrum key tool.
!!!SCA: 
!!!YOR: 
!!!AGN: violin
!!!AFT: stage1
!!!ENC: F. Bennion
!!!END: 1997/04/15
!!!AST: baroque
!!!YEC: Copyright 1994, Center for Computer Assisted Research in the Humanities
!!!YEM: Rights to all derivative electronic formats reserved.
!!!YEM: Refer to licensing agreement for further details.
!!!YEN: United States of America
!!!EED: W.B. Hewlett
!!!KEY: 655264381
!!!EMD: Converted from MuseData to Humdrum Aug 9, 1999, by Bret Aarden using muse2kern.
!!!VTS: 1450439947
